X: 829
T: Geçmesin Günümüz Sevgilim Yasla
C: Alâeddin Yavaşca
O: Turkey
F: http://compmusic.upf.edu/node/140
N: kurdilihicazkar--sarki--duyek--gecmesin_gunumuz--alaeddin_yavasca
N: makam= kurdilihicazkar
N: form= sarki
N: usul= duyek = 8/4
M: 8/4
L: 1/16
K: C _B _e _A 
Q: 1/4=168
%%MIDI tuningsystem comma53
z2 f2 g2 a2 g2 e2 f2 b2  | a2 g4 fe dc BA G4  | \
w:   |   | 
z2 f2 g2 a2 b2 g2 f2 ef  | 
w:   | 
e2 d4 ed cd _1/4ef g4  | z2 g2 a2 f2 z2 f2 g2 e2  | \
w:   |   | 
d2 g4 ed ce dc BA GB  | 
w:   | 
A2 G2 A2 e2 d2 c2 B2 A2  | A2 G4 c2 A2 B2 G4  | \
w:   |   | 
z2 f2 g2 a2 g2 e2 f2 b2  | 
w:   | 
a2 g4 fe dc BA G4  | z2 f2 g2 a2 b2 g2 f2 ef  | \
w:   |   | 
e2 d4 ed cd _1/4ef g4  | 
w:   | 
z2 g2 a2 f2 z2 f2 g2 e2  | d2 g4 ed ce dc BA GB  | \
w:   |   | 
A2 G2 A2 e2 d2 c2 B2 A2  | 
w:   | 
A2 G6 cd _1/4ef g4  | z2 g4 f2 e4 d2 c2  | g16  | \
w:   |  Geç me sin  gü nü  |  müz   | 
z2 c4 e2 d2 c2 B2 A2  | 
w:  sev *  gi lim  yas  | 
G6 =AB cd _1/4ef g4  | z4 a2 a2 a2 g2 f2 g2  | a16  | \
w:  la  SAZ  |  O  gü zel  *  ba şı  |  nı   | 
z2 b4 b2 b2 a2 a2 g2  | 
w:  göğ sü me  *  yas  | 
g6 e2 d2 c2 g4  | z2 g4 f2 e4 d2 c2  | g16  | \
w:  la  SAZ  |  Geç me sin  gü nü  |  müz   | 
z2 c4 e2 d2 c2 B2 A2  | G6 =AB cd _1/4ef g4  | 
w:  sev *  gi lim  yas  |  la  SAZ  | 
z4 a2 a2 a2 g2 f2 g2  | a16  | z2 b4 b2 b2 a2 a2 g2  | \
w:  O  gü zel  *  ba şı  |  nı   |  göğ sü me  *  yas  | 
g6 a2 g2 b2 a4  | z2 a2 g2 f2 f2 g2 .a2 z2  | 
w:  la  SAZ  |  Bir le şe bi lir  mi   | 
a2 g2 g2 f2 f2 e2 e2 d2  | g2 g4 f2 f2 e4 d2  | \
w:  ah   |  *  aşk  ih ti ras  | 
d6 de dc Bc d4  | 
w:  la   | 
z4 c2 e2 d2 c2 B2 G2  | A2 G2 A2 c2 BA AG A2 G2  | \
w:  o  gü zel  *  ba şı  |  nı   | 
F2 B4 B2 B2 A2 A2 G2  | 
w:  *  göğ sü me  *  yas  | 
G6 =AB cd _1/4ef g4  | z2 a2 g2 f2 f2 g2 .a2 z2  | \
w:  la  SAZ  |  Bir le şe bi lir  mi   | 
a2 g2 g2 f2 f2 e2 e2 d2  | 
w:  ah   | 
g2 g4 f2 f2 e4 d2  | d6 de dc Bc d4  | \
w:  *  aşk  ih ti ras  |  la   | 
z4 c2 e2 d2 c2 B2 G2  | 
w:  o  gü zel  *  ba şı  | 
A2 G2 A2 c2 BA AG A2 G2  | F2 B4 B2 B2 A2 A2 G2  | \
w:  nı   |  *  göğ sü me  *  yas  | 
G6 c2 A2 B2 G4  | 
w:  la  SAZ  | 
z2 f2 g2 a2 g2 e2 f2 b2  | a2 g4 fe dc BA G4  | \
w:   |   | 
z2 f2 g2 a2 b2 g2 f2 ef  | 
w:   | 
e2 d4 ed cd _1/4ef g4  | z2 g2 a2 f2 z2 f2 g2 e2  | \
w:   |   | 
d2 g4 ed ce dc BA GB  | 
w:   | 
A2 G2 A2 e2 d2 c2 B2 A2  | A2 G4 c2 A2 B2 G4  | \
w:   |   | 
z2 f2 g2 a2 g2 e2 f2 b2  | 
w:   | 
a2 g4 fe dc BA G4  | z2 f2 g2 a2 b2 g2 f2 ef  | \
w:   |   | 
e2 d4 ed cd _1/4ef g4  | 
w:   | 
z2 g2 a2 f2 z2 f2 g2 e2  | d2 g4 ed ce dc BA GB  | \
w:   |   | 
A2 G2 A2 e2 d2 c2 B2 A2  | 
w:   | 
A2 G6 cd _1/4ef g4  | g2 g4 f2 e4 d2 c2  | g16  | \
w:   |  E lâ  *  göz le rin  |  de  | 
z4 c2 e2 d2 c2 B2 A2  | 
w:  me  ne viş *  ler   | 
G6 =AB cd _1/4ef g4  | z2 a4 a2 a2 g2 f2 g2  | a16  | \
w:  var  SAZ  |  Kor  gi bi  du dak  |  lar   | 
z4 b2 b2 b2 a2 a2 g2  | 
w:  ve  kı zıl  *  saç  | 
g6 e2 d2 c2 g4  | g2 g4 f2 e4 d2 c2  | g16  | \
w:  lar  SAZ  |  E lâ  *  göz le rin  |  de  | 
z4 c2 e2 d2 c2 B2 A2  | G6 =AB cd _1/4ef g4  | 
w:  me  ne viş *  ler   |  var  SAZ  | 
z2 a4 a2 a2 g2 f2 g2  | a16  | z4 b2 b2 b2 a2 a2 g2  | \
w:  Kor  gi bi  du dak  |  lar   |  ve  kı zıl  *  saç  | 
g6 a2 g2 b2 a4  | z2 a2 g2 f2 f2 g2 a4  | 
w:  lar   SAZ  |  Ok şa sam  u san  | 
a2 g2 g2 f2 f2 e2 e2 d2  | z2 g4 f2 f2 e4 d2  | \
w:  mam   |  mah şe re  *  ka  | 
d6 de dc Bc d4  | 
w:  dar  SAZ  | 
z4 c2 e2 d2 c2 B2 G2  | A2 G2 A2 c2 BA AG A2 G2  | \
w:  O  gü zel  *  ba şı  |  nı   | 
F2 B4 B2 B2 A2 A2 G2  | 
w:  *  göğ sü me  *  yas  | 
G6 =AB cd _1/4ef g4  | z2 a2 g2 f2 f2 g2 a4  | \
w:  la  SAZ  |  Ok şa sam  u san  | 
a2 g2 g2 f2 f2 e2 e2 d2  | 
w:  mam   | 
z2 g4 f2 f2 e4 d2  | d6 de dc Bc d4  | \
w:  mah şe re  *  ka  |  dar  SAZ  | 
z4 c2 e2 d2 c2 B2 G2  | 
w:  O  gü zel  *  ba şı  | 
A2 G2 A2 c2 BA AG A2 G2  | F2 B4 B2 B2 A2 A2 G2  | G16  | |


